X:4476
T:Muriel Johnstone's Compliments to Robert MacKay
O:england
M:4/4
L:1/8
Q:128
K:Bb
d2d3/2B/ G/E3/2E2|e2g3/2B/ A/F3/2F2|A3/2c/(3fga bfdB|g3/2e/c3/2B/ A/F3/2
F2|
W: Bb Eb Cm F7 F F7 Bb Bb7 Eb C7 F F7
d2d3/2B/ G/E3/2E2|e2g3/2B/ A/F3/2F2|A3/2c/(3fga (3bab(3fed|g3/2e/c3/2f/
d/B3/2B2|
_A4 z4|G4 z4|
W: Bb7 Eb Cm F7 F Eb Bb Bb7 Cm F7 Bb
B,3/2D/F/D3/2 B2(3BAB|G3/2e/F/D3/2 E3/2C/C/D3/2|B,3/2D/F/D3/2 B2(3BAB|(3
gfe(3dcB A/F3/2F3/2A/|
z4 F4|
W: Bb Eb Bb Cm F Bb Gm Eb C7 F F7
B3/2d/f/d3/2 [b2d2|(3baba3/2g/ f3/2=e/f/d3/2|d2d2 d3/2B/G/E3/2|E3/2e/g/e
3/2 c3/2a/b/B3/2|B2
z8=e4A4_A4z4
W: Bb Gm A Dm Bb7 Eb Cm F7 Bb


